assets/afupday/2022/afup-day-2022-generic.svg

<?xml version="1.0" encoding="UTF-8"?>
<!-- Created with EazyDraw for Mac ( http://www.eazydraw.com/ ) -->

<svg
    version="1.1"
    xmlns:dc="http://purl.org/dc/elements/1.1/"
    xmlns:cc="http://creativecommons.org/ns#"
    xmlns:rdf="http://www.w3.org/1999/02/22-rdf-syntax-ns#"
    xmlns:svg="http://www.w3.org/2000/svg"
    xmlns:xlink="http://www.w3.org/1999/xlink"
    xmlns="http://www.w3.org/2000/svg"
    width="250.902848"
    height="240.073263105"
    viewBox="0, 0, 250.902848, 240.073263105"
    preserveAspectRatio="none"
    id="svg2">
   <defs
       id="defs_F28115AD"/>
   <metadata
       id="metadata7">
      <rdf:RDF>
         <cc:Work
             rdf:about="">
            <dc:format>image/svg+xml</dc:format>
            <dc:type rdf:resource="http://purl.org/dc/dcmitype/StillImage"/>
            <dc:title></dc:title>
         </cc:Work>
      </rdf:RDF>
   </metadata>
   <g
       id="layer_Paper"
       style="fill:#000000;fill-opacity:1;stroke:#000000;stroke-opacity:1;fill-rule:nonzero;stroke-linecap:square;stroke-linejoin:miter;stroke-width:1;stroke-miterlimit:10">
      <path
          style="fill:#234077;stroke:none"
          id="987F82AD"
          d="M0.003273349,182.484987105 L0.003273349,116.898368105 L0.003273349,34.4647354052 L127.678614,0.255260710303 C131.954404,-0.891108895717 135.426056,1.773255625303 135.426056,6.200215905216 L135.426056,47.2438171053
L212.166683,27.0868182053 C216.604141,25.9215524053 220.207017,28.7003439053 220.207017,33.2879219052 L220.207017,123.481595105 L241.799078,117.696208105 C246.823368,116.350378105 250.902848,119.479799105 250.902848,124.681504105
L250.902848,163.419768105 C250.902848,168.621473105 246.823368,173.937604105 241.799078,175.284484105 L0.003273349,240.073263105 L0.003273349,182.484987105 z"/>
      <polygon
          style="fill:#476BBC;stroke:none"
          id="997F82AD"
          points="36.73,24.7345161053 0,34.5935161053 36.73,67.1445161053"/>
      <polygon
          style="fill:#3F73BD;stroke:none"
          id="E97F82AD"
          points="109.911,47.3395161053 73.182,57.1975161053 109.911,89.7495161053"/>
      <polygon
          style="fill:#487DC8;stroke:none"
          id="2A7F82AD"
          points="73.22,99.6215161053 36.49,109.480516105 73.22,142.031516105"/>
      <polygon
          style="fill:#425DA2;stroke:none"
          id="7A7F82AD"
          points="146.632,122.288516105 109.902,132.147516105 146.632,164.699516105"/>
      <polygon
          style="fill:#6AAEE3;stroke:none"
          id="BA7F82AD"
          points="183.318,70.0155161053 146.589,79.8745161053 183.318,112.426516105"/>
      <polygon
          style="fill:#498CD2;stroke:none"
          id="0B7F82AD"
          points="36.73,151.960516105 0,161.819516105 36.73,194.370516105"/>
      <polygon
          style="fill:#487DC8;stroke:none"
          id="4B7F82AD"
          points="73.22,14.8565161053 36.49,24.7145161053 73.22,57.2665161053"/>
      <polygon
          style="fill:#487DC8;stroke:none"
          id="9B7F82AD"
          points="109.956,5.036516105283 73.226,14.8955161053 109.956,47.4475161053"/>
      <polygon
          style="fill:#2F5296;stroke:none"
          id="DB7F82AD"
          points="109.911,89.6915161053 73.182,99.5505161053 109.911,132.101516105"/>
      <polygon
          style="fill:#476BBC;stroke:none"
          id="3C7F82AD"
          points="36.73,67.1425161053 0,77.0015161053 36.73,109.553516105"/>
      <polygon
          style="fill:#487DC8;stroke:none"
          id="7C7F82AD"
          points="73.22,142.019516105 36.49,151.877516105 73.22,184.429516105"/>
      <polygon
          style="fill:#425DA2;stroke:none"
          id="BC7F82AD"
          points="73.22,57.1575161053 36.49,67.0165161053 73.22,99.5685161053"/>
      <polygon
          style="fill:#325295;stroke:none"
          id="0D7F82AD"
          points="146.632,79.8355161053 109.902,89.6945161053 146.632,122.246516105"/>
      <polygon
          style="fill:#3A64AD;stroke:none"
          id="4D7F82AD"
          points="220.045,144.514516105 183.315,154.373516105 215.01,182.443516105 220.045,181.107516105"/>
      <polygon
          style="fill:#3A64AD;stroke:none"
          id="8D7F82AD"
          points="220.045,102.514516105 183.315,112.373516105 220.045,144.925516105"/>
      <polygon
          style="fill:#7F9AD6;stroke:none"
          id="CD7F82AD"
          points="109.911,132.083516105 73.182,141.942516105 109.911,174.494516105"/>
      <polygon
          style="fill:#4C9EDC;stroke:none"
          id="0E7F82AD"
          points="36.73,109.551516105 0,119.410516105 36.73,151.961516105"/>
      <polygon
          style="fill:#476BBC;stroke:none"
          id="5E7F82AD"
          points="36.49,67.0685161053 73.22,57.2095161053 36.49,24.6585161053"/>
      <polygon
          style="fill:#3A64AD;stroke:none"
          id="8E7F82AD"
          points="109.902,89.7465161053 146.632,79.8875161053 109.902,47.3365161053"/>
      <polygon
          style="fill:#425DA2;stroke:none"
          id="CE7F82AD"
          points="73.182,142.017516105 109.911,132.158516105 73.182,99.6065161053"/>
      <polygon
          style="fill:#325295;stroke:none"
          id="FE7F82AD"
          points="183.315,112.425516105 220.045,102.566516105 183.315,70.0145161053"/>
      <polygon
          style="fill:#498CD2;stroke:none"
          id="3F7F82AD"
          points="0,119.411516105 36.73,109.552516105 0,77.0005161053"/>
      <polygon
          style="fill:#7F9AD6;stroke:none"
          id="6F7F82AD"
          points="36.49,194.294516105 73.22,184.435516105 36.49,151.883516105"/>
      <polygon
          style="fill:#7F9AD6;stroke:none"
          id="AF7F82AD"
          points="73.182,57.2545161053 109.911,47.3955161053 73.182,14.8445161053"/>
      <polygon
          style="fill:#727EBD;stroke:none"
          id="EF7F82AD"
          points="36.49,109.420516105 73.22,99.5615161053 36.49,67.0105161053"/>
      <polygon
          style="fill:#32549D;stroke:none"
          id="208F82AD"
          points="183.315,154.777516105 220.045,144.918516105 183.315,112.367516105"/>
      <polygon
          style="fill:#6495D5;stroke:none"
          id="608F82AD"
          points="73.182,184.351516105 109.911,174.492516105 73.182,141.941516105"/>
      <polygon
          style="fill:#50A0DD;stroke:none"
          id="A08F82AD"
          points="0,161.819516105 36.73,151.961516105 0,119.409516105"/>
      <polygon
          style="fill:#3A64AD;stroke:none"
          id="F08F82AD"
          points="73.182,99.5565161053 109.911,89.6975161053 73.182,57.1455161053"/>
      <polygon
          style="fill:#487DC8;stroke:none"
          id="318F82AD"
          points="146.632,122.246516105 183.361,112.387516105 146.632,79.8355161053"/>
      <polygon
          style="fill:#2F5296;stroke:none"
          id="718F82AD"
          points="0,77.0025161053 36.73,67.1435161053 0,34.5925161053"/>
      <polygon
          style="fill:#476BBC;stroke:none"
          id="A18F82AD"
          points="109.902,174.491516105 146.632,164.632516105 109.902,132.080516105"/>
      <polygon
          style="fill:#7F9AD6;stroke:none"
          id="E18F82AD"
          points="36.49,151.888516105 73.22,142.030516105 36.49,109.478516105"/>
      <path
          style="fill:#FFFFFF;stroke:none;fill-rule:evenodd"
          id="B38F82AD"
          d="M129.264,149.011586105 L124.93152,133.618526105 L102.655,139.587626105 L98.3214709999,157.302816105 L81.0450929999,161.932386105 L106.32086,74.2750051053 L121.26461,70.2711091052 L146.70835,144.337926105
z M113.76492,94.1685071053 L106.20958,125.024956105 L121.32025,120.975916105 z M158.30222,60.3464041052 L170.52386,93.4032101052 L182.68986,53.8125171053 L200.46699,49.0485751053 L178.80145,106.406946105
L178.80145,135.739106105 L162.24627,140.174456105 L162.24627,110.842306105 L140.52614,65.1103471052 z M42.991291,172.128986105 L22.048,177.741156105 L22.048,96.8559671054 L43.4353519999,91.1251681053 L43.4353519999,91.1251681053
C52.879254,88.5944771054 60.406591,89.5774291053 66.017363,94.0740261053 L66.017363,94.0740261053 L66.017363,94.0740261053 C71.628135,98.5699221053 74.4891610001,106.025176105 74.600438,116.439786105 L74.600438,116.439786105
L74.600438,129.549546105 L74.600438,129.549546105 C74.600438,140.179006105 71.795052,149.272986105 66.18428,156.831466105 L66.18428,156.831466105 L66.18428,156.831466105 C60.5735069999,164.389946105 52.842511,169.489116105 42.991291,172.128986105
z M44.3245230001,104.497386105 L38.3806180001,106.089916105 L38.3806180001,159.809716105 L43.269485,158.499576105 L43.269485,158.499576105 C48.712991,157.041066105 52.546121,154.578966105 54.7688739999,151.113266105
L54.7688739999,151.113266105 L54.7688739999,151.113266105 C56.990927,147.647556105 58.157243,142.381466105 58.267821,135.314986105 L58.267821,135.314986105 L58.267821,121.260416105 L58.267821,121.260416105
C58.267821,113.705426105 57.212433,108.719986105 55.101657,106.304066105 L55.101657,106.304066105 L55.101657,106.304066105 C52.990881,103.888156105 49.398503,103.285926105 44.3245230001,104.497386105 z
M42.3771640001,76.9538021052 L37.449455,78.2744371053 L37.449455,78.2744371053 C37.163912,77.7257471052 36.958503,76.7273981053 36.833229,75.2793891053 L36.833229,75.2793891053 L36.833229,75.2793891053
C35.1549660001,78.1929041052 33.012346,79.9988901053 30.40537,80.6973501052 L30.40537,80.6973501052 L30.40537,80.6973501052 C27.7801980001,81.4007091052 25.73101,81.2131471053 24.257806,80.1346631052 L24.257806,80.1346631052
L24.257806,80.1346631052 C22.784602,79.0568801053 22.048,77.1784571054 22.048,74.4993961052 L22.048,74.4993961052 L22.048,74.4993961052 C22.048,71.5536881053 23.0480990001,68.9467121052 25.048297,66.6784681053
L25.048297,66.6784681053 L25.048297,66.6784681053 C27.047795,64.4109231053 29.7887940001,62.7924991053 33.2712940001,61.8231931053 L33.2712940001,61.8231931053 L36.752395,60.8909811053 L36.752395,57.8109001052
L36.752395,57.8109001052 C36.752395,56.0787481053 36.3685220001,54.9495251053 35.6007759999,54.4232311053 L35.6007759999,54.4232311053 L35.6007759999,54.4232311053 C34.833031,53.8969361053 33.663566,53.8440971053 32.092381,54.2647121053
L32.092381,54.2647121053 L32.092381,54.2647121053 C30.6639679999,54.6475361053 29.5032519999,55.3827381052 28.6102310001,56.4703191053 L28.6102310001,56.4703191053 L28.6102310001,56.4703191053 C27.7172110001,57.5579011052 27.2707,58.7532601052 27.2707,60.0563981053
L27.2707,60.0563981053 L22.5309029999,61.3266431053 L22.5309029999,61.3266431053 C22.5309029999,59.8443411052 22.9683149999,58.3119991053 23.8431390001,56.7296171053 L23.8431390001,56.7296171053 L23.8431390001,56.7296171053
C24.717963,55.1472351053 25.896526,53.7734111053 27.3788289999,52.6081451052 L27.3788289999,52.6081451052 L27.3788289999,52.6081451052 C28.860431,51.4435801053 30.5120989999,50.6170461053 32.333833,50.1285441053
L32.333833,50.1285441053 L32.333833,50.1285441053 C35.2977370001,49.3349031053 37.551984,49.4675271053 39.0965740001,50.5264141052 L39.0965740001,50.5264141052 L39.0965740001,50.5264141052 C40.641163,51.5860011053 41.4313040001,53.5214621052 41.466997,56.3327971053
L41.466997,56.3327971053 L41.466997,70.9574081053 L41.466997,70.9574081053 C41.4844970001,73.1843601054 41.7878829999,75.0403871052 42.3771640001,76.5254891052 L42.3771640001,76.5254891052 z M31.127625,76.1916561053
L31.127625,76.1916561053 L31.127625,76.1916561053 C32.2886919999,75.8809181052 33.395869,75.2629421054 34.4491579999,74.3377281053 L34.4491579999,74.3377281053 L34.4491579999,74.3377281053 C35.503146,73.4125141053 36.2708909999,72.4033171053 36.752395,71.3101371053
L36.752395,71.3101371053 L36.752395,64.3993761053 L34.0743830001,65.1174311053 L34.0743830001,65.1174311053 C31.8243350001,65.7557031052 30.0477419999,66.7362061052 28.744604,68.0589401052 L28.744604,68.0589401052
L28.744604,68.0589401052 C27.4407660001,69.3809741053 26.7888469999,70.9171661053 26.7888469999,72.6675141053 L26.7888469999,72.6675141053 L26.7888469999,72.6675141053 C26.7888469999,74.3100841053 27.1191809999,75.4134121052 27.779848,75.9774991053
L27.779848,75.9774991053 L27.779848,75.9774991053 C28.4405150001,76.5415851053 29.556441,76.6129711053 31.127625,76.1916561053 z M55.636,73.4013171054 L50.895152,74.6715611053 L50.895152,49.5217661053 L47.118011,50.5337621053
L47.118011,46.7030821052 L50.895152,45.6910861053 L50.895152,42.3433091053 L50.895152,42.3433091053 C50.9483420001,39.3829031053 51.693692,36.8840561053 53.1312030001,34.8467651052 L53.1312030001,34.8467651052
L53.1312030001,34.8467651052 C54.568714,32.8101741053 56.600056,31.4402001053 59.2252279999,30.7368411052 L59.2252279999,30.7368411052 L59.2252279999,30.7368411052 C60.171438,30.4834921053 61.1267459999,30.3792131053 62.091152,30.4240041053
L62.091152,30.4240041053 L61.8497010001,34.5066331052 L61.8497010001,34.5066331052 C61.1708369999,34.5276331052 60.4475330001,34.6410061053 59.6797869999,34.8467651052 L59.6797869999,34.8467651052 L59.6797869999,34.8467651052
C56.9839289999,35.5690201052 55.636,37.8498621053 55.636,41.6892901053 L55.636,41.6892901053 L55.636,44.4208411053 L60.591004,43.0928581053 L60.591004,46.9235381053 L55.636,48.2515211053 z M81.053491,66.5902851054
L80.946413,64.0749911053 L80.946413,64.0749911053 C79.3752279999,66.5496931052 77.0807400001,68.1912141053 74.062946,68.9995511053 L74.062946,68.9995511053 L74.062946,68.9995511053 C71.438474,69.7029101053 69.4564719999,69.3277851053 68.1169410001,67.8741771053
L68.1169410001,67.8741771053 L68.1169410001,67.8741771053 C66.77811,66.4205701053 66.0995969999,63.9640631053 66.0814,60.5046581053 L66.0814,60.5046581053 L66.0814,41.6221031053 L70.796003,40.3592071052
L70.796003,58.8932321053 L70.796003,58.8932321053 C70.796003,63.4108241052 72.1530299999,65.3060431053 74.867085,64.5788901053 L74.867085,64.5788901053 L74.867085,64.5788901053 C77.7421069999,63.8090441053 79.724108,61.9922091053 80.8130900001,59.1283851052
L80.8130900001,59.1283851052 L80.8130900001,37.6748971053 L85.553937,36.4046521053 L85.553937,65.3851281052 z M113.6232,41.6053071053 L113.6232,44.7662221052 L113.6232,44.7662221052 C113.6232,49.3551991052 112.79736,52.9958671053 111.14569,55.6882261053
L111.14569,55.6882261053 L111.14569,55.6882261053 C109.49403,58.3805851053 107.15964,60.1312841053 104.14255,60.9403211052 L104.14255,60.9403211052 L104.14255,60.9403211052 C101.23184,61.7199641052 98.990886,61.2220141053 97.419702,59.4464711053
L97.419702,59.4464711053 L97.419702,73.3477771053 L92.705099,74.6106731052 L92.705099,34.4877371052 L96.9903379999,33.3403181053 L97.2317899999,36.4896851053 L97.2317899999,36.4896851053 C98.82117,33.5635731053 101.09781,31.7033471053 104.06172,30.9090061053
L104.06172,30.9090061053 L104.06172,30.9090061053 C107.23978,30.0579781053 109.61475,30.5289831052 111.18663,32.3220231053 L111.18663,32.3220231053 L111.18663,32.3220231053 C112.75782,34.1150621053 113.57001,37.2094901053 113.6232,41.6053071053
z M108.90964,46.2170301053 L108.90964,43.3238111054 L108.90964,43.3238111054 C108.90964,40.0743641053 108.40959,37.8113691053 107.40949,36.5348261053 L107.40949,36.5348261053 L107.40949,36.5348261053 C106.4094,35.2575821052 104.80252,34.9157011053 102.58886,35.5091821053
L102.58886,35.5091821053 L102.58886,35.5091821053 C100.32062,36.1166601053 98.597565,37.7123391053 97.419702,40.2962201053 L97.419702,40.2962201053 L97.419702,55.3753891053 L97.419702,55.3753891053 C98.5800689999,57.2790071052 100.32097,57.9197281054 102.6424,57.2975531053
L102.6424,57.2975531053 L102.6424,57.2975531053 C104.78467,56.7229681053 106.36041,55.5283091053 107.3696,53.7135731053 L107.3696,53.7135731053 L107.3696,53.7135731053 C108.3781,51.8988381052 108.89145,49.3999901053 108.90964,46.2170301053
z"/>
      <g id="76AF82AD_transform" transform="matrix(1.0352762,-0.25881905,0,0.96592581,-2.31019749051,23.6806016978)">
         <text
             id="26AF82AD"
             style="fill:#FFFFFF;stroke:none"
             font-family="Roboto Condensed"
             font-size="38"
             font-weight="normal"
             font-style="normal">
            <tspan x="21.9712639416" y="205.534902767">2022</tspan>
         </text>
      </g>
   </g>
</svg>

<?xml version="1.0" encoding="utf-8"?>
<!-- Generator: Adobe Illustrator 25.2.3, SVG Export Plug-In . SVG Version: 6.00 Build 0)  -->
<svg version="1.1"
	 id="svg2" xmlns:cc="http://creativecommons.org/ns#" xmlns:dc="http://purl.org/dc/elements/1.1/" xmlns:rdf="http://www.w3.org/1999/02/22-rdf-syntax-ns#" xmlns:svg="http://www.w3.org/2000/svg"
	 xmlns="http://www.w3.org/2000/svg" xmlns:xlink="http://www.w3.org/1999/xlink" x="0px" y="0px" viewBox="0 0 250.9 240.07"
	 style="enable-background:new 0 0 250.9 240.07;" xml:space="preserve">
<style type="text/css">
	.st0{fill:#234077;}
	.st1{fill:#476BBC;}
	.st2{fill:#3F73BD;}
	.st3{fill:#487DC8;}
	.st4{fill:#425DA2;}
	.st5{fill:#6AAEE3;}
	.st6{fill:#498CD2;}
	.st7{fill:#2F5296;}
	.st8{fill:#325295;}
	.st9{fill:#3A64AD;}
	.st10{fill:#7F9AD6;}
	.st11{fill:#4C9EDC;}
	.st12{fill:#727EBD;}
	.st13{fill:#32549D;}
	.st14{fill:#6495D5;}
	.st15{fill:#50A0DD;}
	.st16{fill-rule:evenodd;clip-rule:evenodd;fill:#FFFFFF;}
	.st17{fill:#FFFFFF;}
	.st18{font-family:'RobotoCondensed-Regular';}
	.st19{font-size:36.7052px;}
</style>
<g id="layer_Paper">
	<path id="_x39_87F82AD" class="st0" d="M0,182.49V116.9V34.46L127.68,0.26c4.28-1.15,7.75,1.52,7.75,5.94v41.04l76.74-20.16
		c4.44-1.17,8.04,1.61,8.04,6.2v90.19l21.59-5.79c5.02-1.35,9.1,1.78,9.1,6.99v38.74c0,5.2-4.08,10.52-9.1,11.86L0,240.07V182.49z"
		/>
	<polygon id="_x39_97F82AD" class="st1" points="36.73,24.73 0,34.59 36.73,67.14 	"/>
	<polygon id="E97F82AD" class="st2" points="109.91,47.34 73.18,57.2 109.91,89.75 	"/>
	<polygon id="_x32_A7F82AD" class="st3" points="73.22,99.62 36.49,109.48 73.22,142.03 	"/>
	<polygon id="_x37_A7F82AD" class="st4" points="146.63,122.29 109.9,132.15 146.63,164.7 	"/>
	<polygon id="BA7F82AD" class="st5" points="183.32,70.02 146.59,79.87 183.32,112.43 	"/>
	<polygon id="_x30_B7F82AD" class="st6" points="36.73,151.96 0,161.82 36.73,194.37 	"/>
	<polygon id="_x34_B7F82AD" class="st3" points="73.22,14.86 36.49,24.71 73.22,57.27 	"/>
	<polygon id="_x39_B7F82AD" class="st3" points="109.96,5.04 73.23,14.9 109.96,47.45 	"/>
	<polygon id="DB7F82AD" class="st7" points="109.91,89.69 73.18,99.55 109.91,132.1 	"/>
	<polygon id="_x33_C7F82AD" class="st1" points="36.73,67.14 0,77 36.73,109.55 	"/>
	<polygon id="_x37_C7F82AD" class="st3" points="73.22,142.02 36.49,151.88 73.22,184.43 	"/>
	<polygon id="BC7F82AD" class="st4" points="73.22,57.16 36.49,67.02 73.22,99.57 	"/>
	<polygon id="_x30_D7F82AD" class="st8" points="146.63,79.84 109.9,89.69 146.63,122.25 	"/>
	<polygon id="_x34_D7F82AD" class="st9" points="220.04,144.51 183.32,154.37 215.01,182.44 220.04,181.11 	"/>
	<polygon id="_x38_D7F82AD" class="st9" points="220.04,102.51 183.32,112.37 220.04,144.93 	"/>
	<polygon id="CD7F82AD" class="st10" points="109.91,132.08 73.18,141.94 109.91,174.49 	"/>
	<polygon id="_x30_E7F82AD" class="st11" points="36.73,109.55 0,119.41 36.73,151.96 	"/>
	<polygon id="_x35_E7F82AD" class="st1" points="36.49,67.07 73.22,57.21 36.49,24.66 	"/>
	<polygon id="_x38_E7F82AD" class="st9" points="109.9,89.75 146.63,79.89 109.9,47.34 	"/>
	<polygon id="CE7F82AD" class="st4" points="73.18,142.02 109.91,132.16 73.18,99.61 	"/>
	<polygon id="FE7F82AD" class="st8" points="183.32,112.43 220.04,102.57 183.32,70.01 	"/>
	<polygon id="_x33_F7F82AD" class="st6" points="0,119.41 36.73,109.55 0,77 	"/>
	<polygon id="_x36_F7F82AD" class="st10" points="36.49,194.29 73.22,184.44 36.49,151.88 	"/>
	<polygon id="AF7F82AD" class="st10" points="73.18,57.25 109.91,47.4 73.18,14.84 	"/>
	<polygon id="EF7F82AD" class="st12" points="36.49,109.42 73.22,99.56 36.49,67.01 	"/>
	<polygon id="_x32_08F82AD" class="st13" points="183.32,154.78 220.04,144.92 183.32,112.37 	"/>
	<polygon id="_x36_08F82AD" class="st14" points="73.18,184.35 109.91,174.49 73.18,141.94 	"/>
	<polygon id="A08F82AD" class="st15" points="0,161.82 36.73,151.96 0,119.41 	"/>
	<polygon id="F08F82AD" class="st9" points="73.18,99.56 109.91,89.7 73.18,57.15 	"/>
	<polygon id="_x33_18F82AD" class="st3" points="146.63,122.25 183.36,112.39 146.63,79.84 	"/>
	<polygon id="_x37_18F82AD" class="st7" points="0,77 36.73,67.14 0,34.59 	"/>
	<polygon id="A18F82AD" class="st1" points="109.9,174.49 146.63,164.63 109.9,132.08 	"/>
	<polygon id="E18F82AD" class="st10" points="36.49,151.89 73.22,142.03 36.49,109.48 	"/>
	<path id="B38F82AD" class="st16" d="M129.26,149.01l-4.33-15.39l-22.28,5.97l-4.33,17.72l-17.28,4.63l25.28-87.66l14.94-4
		l25.44,74.07L129.26,149.01z M113.76,94.17l-7.56,30.86l15.11-4.05L113.76,94.17z M158.3,60.35l12.22,33.06l12.17-39.59l17.78-4.76
		l-21.67,57.36v29.33l-16.56,4.44v-29.33l-21.72-45.73L158.3,60.35z M42.99,172.13l-20.94,5.61V96.86l21.39-5.73l0,0
		c9.44-2.53,16.97-1.55,22.58,2.95l0,0l0,0c5.61,4.5,8.47,11.95,8.58,22.37l0,0v13.11l0,0c0,10.63-2.81,19.72-8.42,27.28l0,0l0,0
		C60.57,164.39,52.84,169.49,42.99,172.13z M44.32,104.5l-5.94,1.59v53.72l4.89-1.31l0,0c5.44-1.46,9.28-3.92,11.5-7.39l0,0l0,0
		c2.22-3.47,3.39-8.73,3.5-15.8l0,0v-14.05l0,0c0-7.55-1.06-12.54-3.17-14.96l0,0l0,0C52.99,103.89,49.4,103.29,44.32,104.5z
		 M42.38,76.95l-4.93,1.32l0,0c-0.29-0.55-0.49-1.55-0.62-3l0,0l0,0c-1.68,2.91-3.82,4.72-6.43,5.42l0,0l0,0
		c-2.63,0.7-4.67,0.52-6.15-0.56l0,0l0,0c-1.47-1.08-2.21-2.96-2.21-5.64l0,0l0,0c0-2.95,1-5.55,3-7.82l0,0l0,0
		c2-2.27,4.74-3.89,8.22-4.86l0,0l3.48-0.93v-3.08l0,0c0-1.73-0.38-2.86-1.15-3.39l0,0l0,0c-0.77-0.53-1.94-0.58-3.51-0.16l0,0l0,0
		c-1.43,0.38-2.59,1.12-3.48,2.21l0,0l0,0c-0.89,1.09-1.34,2.28-1.34,3.59l0,0l-4.74,1.27l0,0c0-1.48,0.44-3.01,1.31-4.6l0,0l0,0
		c0.87-1.58,2.05-2.96,3.54-4.12l0,0l0,0c1.48-1.16,3.13-1.99,4.96-2.48l0,0l0,0c2.96-0.79,5.22-0.66,6.76,0.4l0,0l0,0
		c1.54,1.06,2.33,3,2.37,5.81l0,0v14.62l0,0c0.02,2.23,0.32,4.08,0.91,5.57l0,0V76.95z M31.13,76.19L31.13,76.19L31.13,76.19
		c1.16-0.31,2.27-0.93,3.32-1.85l0,0l0,0c1.05-0.93,1.82-1.93,2.3-3.03l0,0V64.4l-2.68,0.72l0,0c-2.25,0.64-4.03,1.62-5.33,2.94l0,0
		l0,0c-1.3,1.32-1.96,2.86-1.96,4.61l0,0l0,0c0,1.64,0.33,2.75,0.99,3.31l0,0l0,0C28.44,76.54,29.56,76.61,31.13,76.19z M55.64,73.4
		l-4.74,1.27V49.52l-3.78,1.01V46.7l3.78-1.01v-3.35l0,0c0.05-2.96,0.8-5.46,2.24-7.5l0,0l0,0c1.44-2.04,3.47-3.41,6.09-4.11l0,0
		l0,0c0.95-0.25,1.9-0.36,2.87-0.31l0,0l-0.24,4.08l0,0c-0.68,0.02-1.4,0.13-2.17,0.34l0,0l0,0c-2.7,0.72-4.04,3-4.04,6.84l0,0v2.73
		l4.96-1.33v3.83l-4.96,1.33V73.4z M81.05,66.59l-0.11-2.52l0,0c-1.57,2.47-3.87,4.12-6.88,4.92l0,0l0,0
		c-2.62,0.7-4.61,0.33-5.95-1.13l0,0l0,0c-1.34-1.45-2.02-3.91-2.04-7.37l0,0V41.62l4.71-1.26v18.53l0,0c0,4.52,1.36,6.41,4.07,5.69
		l0,0l0,0c2.88-0.77,4.86-2.59,5.95-5.45l0,0V37.67l4.74-1.27v28.98L81.05,66.59z M113.62,41.61v3.16l0,0
		c0,4.59-0.83,8.23-2.48,10.92l0,0l0,0c-1.65,2.69-3.99,4.44-7,5.25l0,0l0,0c-2.91,0.78-5.15,0.28-6.72-1.49l0,0v13.9l-4.71,1.26
		V34.49l4.29-1.15l0.24,3.15l0,0c1.59-2.93,3.87-4.79,6.83-5.58l0,0l0,0c3.18-0.85,5.55-0.38,7.12,1.41l0,0l0,0
		C112.76,34.12,113.57,37.21,113.62,41.61z M108.91,46.22v-2.89l0,0c0-3.25-0.5-5.51-1.5-6.79l0,0l0,0c-1-1.28-2.61-1.62-4.82-1.03
		l0,0l0,0c-2.27,0.61-3.99,2.2-5.17,4.79l0,0v15.08l0,0c1.16,1.9,2.9,2.54,5.22,1.92l0,0l0,0c2.14-0.57,3.72-1.77,4.73-3.58l0,0l0,0
		C108.38,51.9,108.89,49.4,108.91,46.22z"/>
	<text transform="matrix(1.0718 -0.2679 0 1 20.4366 216.5248)" class="st17 st18 st19">2022</text>
</g>
</svg>
